X:1
T:Like as we do put our trust.
T:Charles Wesley Junior ( 1757 - 1834 ) arr  D G M      
T:Psalm 33 : 21
T:Copyright © 2002   D G Mason    dgm@masondg.freeserve.co.uk This edition available for free download & use from http://www.cpdl.org
T:Like as we do put our trust.
T:Copyright © 2002   D G Mason    dgm@masondg.freeserve.co.uk This edition available for free download &amp; use from http://www.cpdl.org
T:Copyright © 2002   D G Mason    dgm@masondg.freeserve.co.uk This edition available for free download &amp; use from http://www.cpdl.org
T:Copyright © 2002   D G Mason    dgm@masondg.freeserve.co.uk This edition available for free download &amp; use from http://www.cpdl.org
T:Copyright © 2002   D G Mason    dgm@masondg.freeserve.co.uk This edition available for free download &amp; use from http://www.cpdl.org
C:Charles Wesley Junior
C:( 1757 - 1834 )
C:arr  D G M
Z:Psalm 33 : 21
Z:Copyright © 2002   D G Mason    dgm@masondg.freeserve.co.uk
Z:This edition available for free download & use from http://www.cpdl.org
%%score [ 1 2 ] { ( 3 4 ) | ( 5 6 ) }
L:1/8
M:3/4
K:F
V:1 treble-8 transpose=-12 nm="Tenor" snm="T."
V:2 bass nm="Bass" snm="B."
V:3 treble nm="Organ" snm="Kbd."
V:4 treble 
V:5 bass 
V:6 bass 
V:1
"^Andante con moto" z6 | z6 | z6 |!p! z2 c2 c2 |!<(! (c3 B) A2!<)! | d4 c2 | F2!>(! (G3 A/B/) | %7
w: |||Like as|we _ do|put our|trust in _ _|
 A4!>)! z2 | z6 | z6 |!p! z2 A2 A2 |"^poco cresc" (A3 G) F2 | B4 A2 | (d3 ^c) (de) | ^c2 z2 z2 | %15
w: thee,|||Like as|we _ do|put our|trust _ in _|thee,|
!mp! z2!<(! d2 =c2 | B2 A2!<)! G2 |!>(! ^F2 D2!>)!!mf! z2 |!<(! (A4 B!<)!c) | B4 z2 | %20
w: Let thy|mer- ci- ful|kin- dness,|oh _ _|Lord,|
!mp! z2 c2!<(! B2 | A2 G2!<)! F2 |!>(! E2!>)! C2 z2 |!<(! (G4 AB)!<)! |!f! A2 (c4- | %25
w: let thy|mer- ci- ful|kin- dness,|oh _ _|Lord, be|
 c>d) (c2 =B2) | c2 z2 z2 | z6 | z6 | z6 | z6 | z6 |!mf! z2 f2 f2 | (f2 B2) _e2 | (_e2 A2)!<(! d2 | %35
w: _ u- pon _|us.||||||Like as|we _ do|put _ our|
 (d2 G2) c2!<)! | F4!f! f2 | (_ed) (c3 B) | B4 z2 | z6 | z6 |!p! z2 d2 d2 |!<(! d3 c!<)! B2 | %43
w: trust _ in|thee, our|trust _ in *|thee.|||Let thy|mer- ci- ful|
!>(! A2!>)! G2 z2 |!<(! (A2 d3!<)! c) |!mf! B4 c2 |!<(! c3 B A2 | d2!<)! d2 c2 | E2 (F3 G/A/) | %49
w: kin- dness,|Oh _ _|Lord, thy|mer- ci- ful|kin- dness, oh|Lord be u- *|
 G2 G2 z2 | z6 | z6 | z6 |!mf!"^cresc" z2 c2 c2 | (c2 F2) B2 | B4 A2 |!f!!<(! (d3 c) (B!<)!A) | %57
w: pon us.||||Like as|we _ do|put our|trust _ in _|
!>(! (A2!>)!!mp! G2) (A2- | AB) G3 A |!<(! A4!<)!!f! c2 | (f2 B2) A2 | (d2 G2) (A2- | %62
w: thee, _ our|_ _ trust in|thee, as|we * do|put our trust|
"^poco rall" AB) (A2 G2) |"^a tempo" F4 z2 | z6 | z6 | z6 | z6 |] %68
w: _ _ in _|thee.|||||
V:2
"^Andante con moto" z6 | z6 | z6 |!p! z2 A,2 A,2 |!<(! (A,3 G,) F,2!<)! | F,4 F,2 | %6
w: |||Like as|we _ do|put our|
 F,4!>(! E,2!>)! | F,4 z2 | z6 | z6 |!p! z2 F,2 F,2 |"^poco cresc" (F,3 E,) D,2 | %12
w: trust in|thee,|||Like as|we _ do|
 (D,2 E,2) (F,G,) | A,2 G,4 | A,2!mp!!<(! A,2 G,2 | ^F,2 E,2!<)! D,2 |!>(! G,2!>)! ^F,2 z2 | %17
w: put _ our _|trust in|thee, Let thy|mer- ci- ful|kin- dness,|
 z2!mf! z2!<(! (G,2- | G,2!<)! ^F,4) |!mp! G,2!<(! G,2 F,2 | E,2 D,2!<)! C,2 |!>(! F,2!>)! E,2 z2 | %22
w: oh|_ _|Lord, let thy|mer- ci- ful|kin- dness,|
 z2 z2!<(! (F,2- | F,2 E,4)!<)! | F,4!f! G,2 | A,2 F,4 | E,2 z2 z2 | z6 |!mp! z2 C2 C2 | %29
w: oh|_ _|Lord, be|u- pon|us.||Like as|
 (C2 F,2) B,2 | (B,2 E,2) A,2 | (A,2 D,2) G,2 | C,4 z2 | z6 | z6 | z6 |!f! z4 D2 | (CB,) (A,3 B,) | %38
w: we _ do|put _ our|trust _ in|thee,||||our|trust _ in *|
 B,4 z2 | z6 | z6 |!p! z2 B,2 B,2 |!<(! B,3 A,!<)! G,2 |!>(! _E,2!>)! D,2!<(! (G,2- | %44
w: thee.|||Let thy|mer- ci- ful|kin- dness, Oh|
 G,2 ^F,3 E,/!<)!F,/) |!mf! G,4 A,2 |!<(! A,3 G, F,2 | F,2!<)! F,2 F,2 | B,2 A,2 F,2 | F,2 E,2 z2 | %50
w: _ _ _ _|Lord, thy|mer- ci- ful|kin- dness, oh|Lord be u-|pon us.|
 z6 |!mp!"^cresc" z2 A,2 A,2 | (A,2 D,2) G,2 | C,2 F,4 | F,4 G,2 | (G,2 C,2) F,2 | %56
w: |Like as|we _ do|put our|trust in|thee, _ as|
!f!!<(! (B,3 A,) (G,!<)!F,) |!>(! (F,2!>)! E,2)!mp! (F,2- | F,G,) E,3 F, |!<(! F,4!<)!!f! G,2 | %60
w: we do put our|trust, _ our|_ _ trust in|thee, as|
 F,4 E,2 | D,2 E,2 (F,2- |"^poco rall" F,G,) (F,2 E,2) | F,4 z2 | z6 | z6 |"^rall" z6 | z6 |] %68
w: we do|put our trust|_ _ in _|thee.|||||
V:3
!mf! ([CA]3!<(! f ed | c!<)!f A)(c BA | G3) (B AG | F4) z2 |!p!!<(! (FE FG AF)!<)! | z (F B2 c2) | %6
 (A2!>(! B2) G2!>)! | (A3 d cB | Ad F)(A GF | E3) (G!>(! FE | D4)!>)! z2 | d^c de f2 | %12
 [Bb]4 [ca]2 | ad' g4 | [^ca]2 z2 [^CE]2 | [D^F]2 [EG]2 [FA]2 | B2 A2 Bc | d2 e^f gd | _ec Ac BA | %19
 [DB][CA] [B,G]2 [B,D]2 | [CE]2 [DF]2 [EG]2 | A2 G2 AB | c2 de fc | dB GB AG | %24
 [CA][B,G] [A,F]2!f! [Gc]2 | A2 [Ff]4 |!p! [ce]2 c4- | cd T=B4 |{A=B} c4 z2 | %29
"^mp" cf"^dolce" Ac B2- | Be GB A2- | Ad FA G2 | cA F2!mf! z2 | fb df _e2- | ea c_e!<(! d2- | %35
 dg Bd c2-!<)! | [Fc]2!f! [FAf]2 [FB]2 | cB A4 | [DB]3!>(! b a!>)!g |!mf! fb df _ed | c3 _e dc | %41
!>(! B4!>)!!p! z2 |!<(! BA Bc!<)! d2 |!>(! cA G!>)!!<(!d gf | _ec Ac BA | BA!<)! G2!mf! z2 | %46
!<(! AG AB cA | de!<)! fg af | [Beb]2 [cfa]4 | [cg]4!p! [Fc]2 | E2 F3 [EG]/[FA]/ | %51
 [EG]2!mp!"^cresc" [EAe]4 | Ad FA G2- | Gc Ff ed | cf Ac B2 | z2 [Ge]2!f! [Af]2 | %56
!<(! z d ef g!<)!a |!>(! a2!>)! g2!mp! AB | c z G2 c2 | [CA]F AB [Gc]g | [Bf]F Bf [EA]e | %61
 dB G2 A2- |"^poco rall" [DA] z [A,CF]2 [CEG]2 |"^a tempo" [CFA]3 f ed | cf Ac BA | G3 B AG | %66
 cA G3 F | [A,CF]6 |] %68
V:4
 x4 F2 | F4 F2 | C2!>(! D2 E2 | CB,!>)! A,2 x2 | x6 | D4 F2 | (FE D2) E2 | F4 D2 | D4 D2 | %9
 A,2 B,2 ^C2 | (A,G, F,2) x2 | FE FG AF | d2 e2 fe | d6 | x6 | x6 | G2 ^F2 G2 | ^F2 A2 G2 | %18
 G2 ^F4 | x6 | x6 | F2 E2 F2 | E2 G2 F2 | F2 E4 | x6 | F2 A2 =B2 | G2 A2 G2 | A2 F4 | E4 x2 | %29
 F4 FG | E4 EF | D4 DE | C4 x2 | B4 Bc | A4 AB | G4 AG | x6 | G2 F2 C2 | x4 B2 | B4 B2 | F2 G2 A2 | %41
 F_E D2 x2 | G4 G2 | x6 | G2 ^F4 | x6 | F4 F2 | F2 B2 c2 | x6 | f2 e2 x2 | x4 C2 | x6 | D4 DE | %53
 C3 z F2 | F4 G2 | x6 | x6 | c4 F2- | F x E4 | x6 | x6 | F2 E2 FE | x6 | x4 F2 | F4 F2 | C2 D2 E2 | %66
 [CF] z [CF]2 [CE]2 | x6 |] %68
V:5
 F,,2 F,2 G,2 | A,2 C4 | E,G, B,,D, C,B,, | A,,G,, F,,2 z2 | A,G, A,B, CA, | B,2 F,4 | %6
 D,2 B,,2 C,2 | F,,2 D,2 E,2 | F,2 A,4 | ^C,E, G,,B,, A,,G,, | F,,E,, D,,2 z2 |"^poco cresc" D,6 | %12
 G,,4 [F,C]2 | D4 G2 | [A,E]2 z2 z2 | D,6- | [D,D]6- | [D,D]2 [C,C]2 [B,,B,]2 | A,4 [D,,D,]2 | %19
 [G,,G,]2 z2 z2 |"^(ped)" C,6- |"^cresc" [C,C]6- | [C,C]2 [B,,B,]2 [A,,A,]2 | G,4 [C,,C,]2 | %24
 [F,,F,]2 [F,,F,]2 [E,,E,]2 | [F,,F,]2 [D,,D,]4 | [C,,C,]2 F,2 E,2 | F,2 [D,F,]4 | [C,G,]4 z2 | %29
 A,4 B,2 | G,4 A,2 | F,4 G,2 | [A,,A,]4 [A,C]2 | D4 _E2 | C4 D2 | B,4 CB, | %36
 [_E,A,]2 [_E,,E,]2 [D,,D,]2 | [_E,,_E,]2 [F,,F,]4 | B,,2 B,2 C2 | D2 F4 | A,C _E,G, F,E, | %41
 D,C, B,,2 z2 |"^(ped)" D6 | _E2 D2 z2 | z2 z2 D2 | DC B,2 z2 |"^(ped)" C6 | B,C DE F2 | %48
 G2 C2 A,2 | [C,C]4 [C,-A,]2 | G,2 A,4 | [C,C]2 C,2 [C,C]2 | F,4 G,2 | A,6 | A,4 C2 |"^(ped)" C6 | %56
 z2 CD EF | F2 E2 F,G, | [C,A,] z C,2- [C,,C,]2 |!<(! F,,2 [F,,F,]2!<)!!f! [E,,E,]2 | %60
 [D,,D,]4 [C,,C,]2 | [B,,,B,,]2 [C,,C,]2 [F,,F,]2 | [B,,,B,,] z [C,,C,]4 | [F,,F,]2 F,2 G,2 | %64
 A,2 C4 | E,G, B,,D, C,B,, | A,,F,, C,2 [C,,C,]2 | [F,,F,]6 |] %68
V:6
 x2 F,2 F,2 | F,3 A, G,F, | x6 | x6 | F,6 | B,,4 A,,2 | x6 | x2 D,2 D,2 | D,3 F, E,D, | x6 | x6 | %11
 x6 | x6 | B,6 | x6 | x6 | x6 | x6 | C,2 D,2 x2 | x6 | x6 | x6 | x6 | B,,2 C,2- x2 | x6 | x6 | x6 | %27
 x6 | x6 | D,6 | C,6 | B,,6 | x6 | G,6 | F,6 | _E,6 | x6 | x6 | x2 B,2 B,2 | B,3 D CB, | x6 | x6 | %42
 G,,3 A,, B,,2 | C,2 B,,2 _E,2 | C,2 D,4 | G,4 x2 | F,,3 G,, A,,2 | B,,2 B,,2 A,,2 | G,,2 F,,4 | %49
 x6 | C,6 | x6 | B,,6 | A,,6 | D,4 E,2 | F,6 | B,,6 | C,4 F,2 | x6 | x6 | x6 | x6 | x6 | %63
 x2 F,2 F,2 | F,3 A, G,F, | x6 | x6 | x6 |] %68

